images/mouse.svg

<svg fill="none" height="38" viewBox="0 0 19 38" width="19" xmlns="http://www.w3.org/2000/svg"><g fill="#ff94b4"><path d="m6.86111 29v-2.1521c-2.63889-.2691-4.75-2.5826-4.75-5.3266v-13.98883c0-2.95919 2.375-5.38034 5.27778-5.38034h4.22221c2.9028 0 5.2778 2.42115 5.2778 5.38034v13.98883c0 2.7978-2.1111 5.0575-4.75 5.3266v2.1521c3.8528-.269 6.8611-3.551 6.8611-7.4787v-13.98883c0-4.14286-3.325-7.53247-7.3889-7.53247h-4.22221c-4.06389 0-7.38889 3.38961-7.38889 7.53247v13.98883c0 3.9815 3.00833 7.2097 6.86111 7.4787z"/><path d="m9.5 11c.825 0 1.5-.45 1.5-1v-3c0-.55-.675-1-1.5-1s-1.5.45-1.5 1v3c0 .55.675 1 1.5 1z"/><path d="m8.5 26.2667v2.1333 5.9733l-.8-.8533c-.2-.2133-.45-.32-.7-.32s-.5.1067-.7.32c-.4.4267-.4 1.0667 0 1.4933l.7.7467 1.8 1.92c.05.0533.1.1067.15.1067l.05.0533c.05 0 .05.0533.1.0533s.05 0 .1.0534c.05 0 .05 0 .1.0533h.2.2c.05 0 .05 0 .1-.0533.05 0 .05 0 .1-.0534.05 0 .05-.0533.1-.0533 0 0 .05 0 .05-.0533.05-.0534.1-.1067.15-.1067l1.8-1.92.7-.7467c.4-.4266.4-1.0666 0-1.4933-.2-.2133-.45-.32-.7-.32s-.5.1067-.7.32l-.8.8533v-5.9733-2.1333-3.2c0-.5867-.45-1.0667-1-1.0667s-1 .48-1 1.0667z"/></g></svg>

<svg width="19" height="38" viewBox="0 0 19 38" fill="none" xmlns="http://www.w3.org/2000/svg">
<path d="M6.86111 29V26.8479C4.22222 26.5788 2.11111 24.2653 2.11111 21.5213V7.53247C2.11111 4.57328 4.48611 2.15213 7.38889 2.15213H11.6111C14.5139 2.15213 16.8889 4.57328 16.8889 7.53247V21.5213C16.8889 24.3191 14.7778 26.5788 12.1389 26.8479V29C15.9917 28.731 19 25.449 19 21.5213V7.53247C19 3.38961 15.675 0 11.6111 0H7.38889C3.325 0 0 3.38961 0 7.53247V21.5213C0 25.5028 3.00833 28.731 6.86111 29Z" fill="#FF94B4"/>
<path d="M9.5 11C10.325 11 11 10.55 11 10V7C11 6.45 10.325 6 9.5 6C8.675 6 8 6.45 8 7V10C8 10.55 8.675 11 9.5 11Z" fill="#FF94B4"/>
<path d="M8.5 26.2667V28.4V34.3733L7.7 33.52C7.5 33.3067 7.25 33.2 7 33.2C6.75 33.2 6.5 33.3067 6.3 33.52C5.9 33.9467 5.9 34.5867 6.3 35.0133L7 35.76L8.8 37.68C8.85 37.7333 8.9 37.7867 8.95 37.7867L9 37.84C9.05 37.84 9.05 37.8933 9.1 37.8933C9.15 37.8933 9.15 37.8933 9.2 37.9467C9.25 37.9467 9.25 37.9467 9.3 38C9.35 38 9.45 38 9.5 38C9.55 38 9.65 38 9.7 38C9.75 38 9.75 38 9.8 37.9467C9.85 37.9467 9.85 37.9467 9.9 37.8933C9.95 37.8933 9.95 37.84 10 37.84C10 37.84 10.05 37.84 10.05 37.7867C10.1 37.7333 10.15 37.68 10.2 37.68L12 35.76L12.7 35.0133C13.1 34.5867 13.1 33.9467 12.7 33.52C12.5 33.3067 12.25 33.2 12 33.2C11.75 33.2 11.5 33.3067 11.3 33.52L10.5 34.3733V28.4V26.2667V23.0667C10.5 22.48 10.05 22 9.5 22C8.95 22 8.5 22.48 8.5 23.0667V26.2667Z" fill="#FF94B4"/>
</svg>
